pk/canned-fruit.svg

<svg viewBox="0 0 48 48" fill="none" xmlns="http://www.w3.org/2000/svg" height="1em" width="1em">
  <path d="M15 24C15 24 14.5 27 16 33" stroke="black" stroke-width="4" stroke-linecap="round"/>
  <path d="M37.5666 12C38.7278 14.8106 40 18.6419 40 21.9375C40 25.8154 38.6546 33.3501 37.6851 38.2768C37.1408 41.0424 34.7033 43 31.8847 43H16.0422C13.257 43 10.8392 41.0861 10.2804 38.3575C9.31371 33.6374 8 26.4016 8 21.9375C8 18.2592 9.44361 14.6318 10.8271 12" stroke="black" stroke-width="4" stroke-linecap="round" stroke-linejoin="round"/>
  <path d="M11.5868 6.45675C11.7711 6.17196 12.0872 6 12.4264 6H35.5736C35.9128 6 36.2289 6.17196 36.4132 6.45675L39.0014 10.4567C39.432 11.1221 38.9544 12 38.1619 12H9.83814C9.04564 12 8.56805 11.1221 8.99857 10.4567L11.5868 6.45675Z" fill="#2F88FF" stroke="black" stroke-width="4"/>
</svg>

<svg viewBox="0 0 48 48" fill="none" xmlns="http://www.w3.org/2000/svg" height="1em" width="1em">
  <path d="M15 24s-.5 3 1 9" stroke="#000" stroke-width="4" stroke-linecap="round"/>
  <path d="M37.567 12C38.727 14.81 40 18.642 40 21.938c0 3.877-1.345 11.412-2.315 16.339-.544 2.765-2.982 4.723-5.8 4.723H16.042c-2.785 0-5.203-1.914-5.762-4.642C9.314 33.638 8 26.402 8 21.938c0-3.679 1.444-7.306 2.827-9.938" stroke="#000" stroke-width="4" stroke-linecap="round" stroke-linejoin="round"/>
  <path d="M11.587 6.457a1 1 0 0 1 .84-.457h23.147a1 1 0 0 1 .84.457l2.587 4a1 1 0 0 1-.84 1.543H9.839a1 1 0 0 1-.84-1.543l2.589-4Z" fill="#2F88FF" stroke="#000" stroke-width="4"/>
</svg>
